web/public/images/storybook.svg

<svg fill="none" height="42" viewBox="0 0 35 42" width="35" xmlns="http://www.w3.org/2000/svg" xmlns:xlink="http://www.w3.org/1999/xlink"><clipPath id="a"><path d="m0 0h34.4227v42h-34.4227z"/></clipPath><g clip-path="url(#a)"><path d="m4.42331 40.5948-2.03585-38.08079-2.38746.16406 1.56787 37.91673zm15.47709-31.72534c5.2789 0 8.3114 2.88534 8.1617 8.73104l-6.0277.1498c.1123-3.1477-1.2355-3.4474-1.9843-3.4474-.7114 0-1.9094.2248-1.9094 1.9111 0 4.1594 10.2584 3.9345 10.2584 12.3283 0 4.7215-3.6691 6.8947-8.349 6.8947-4.8296 0-9.0602-1.6487-8.5735-8.8809h6.3271c-.0749 2.9229.5618 3.9722 2.1716 3.9722 1.2355 0 1.797-.7121 1.797-1.9111 0-4.2719-10.1085-4.4217-10.1085-12.2534 0-4.4966 2.9576-7.49434 8.2366-7.49434zm14.5223-8.86946-3.2766.267586v6.345444l-2.6631-2.65338-2.5402 2.98159v-6.410826l-21.30008 1.655476 2.19977 38.40901 27.58021 1.4051z" fill="#a86338"/></g></svg>

<svg width="35" height="42" viewBox="0 0 35 42" fill="none" xmlns="http://www.w3.org/2000/svg">
<g clip-path="url(#clip0_26_95)">
<path d="M4.42331 40.5948L2.38746 2.51401L0 2.67807L1.56787 40.5948H4.42331ZM19.9004 8.86946C25.1793 8.86946 28.2118 11.7548 28.0621 17.6005L22.0344 17.7503C22.1467 14.6026 20.7989 14.3029 20.0501 14.3029C19.3387 14.3029 18.1407 14.5277 18.1407 16.214C18.1407 20.3734 28.3991 20.1485 28.3991 28.5423C28.3991 33.2638 24.73 35.437 20.0501 35.437C15.2205 35.437 10.9899 33.7883 11.4766 26.5561H17.8037C17.7288 29.479 18.3655 30.5283 19.9753 30.5283C21.2108 30.5283 21.7723 29.8162 21.7723 28.6172C21.7723 24.3453 11.6638 24.1955 11.6638 16.3638C11.6638 11.8672 14.6214 8.86946 19.9004 8.86946ZM34.4227 0L31.1461 0.267586V6.61303L28.483 3.95965L25.9428 6.94124V0.530414L4.64272 2.18589L6.84249 40.5949L34.4227 42V0Z" fill="#A86338"/>
</g>
<defs>
<clipPath id="clip0_26_95">
<rect width="34.4227" height="42" fill="white"/>
</clipPath>
</defs>
</svg>
